X: 156
T: Bluegrass Brian
C: R-77
C: Aram Hollman 1982
M: C|
Z: Transcribed to abc by Mary Lou Knack
R: reel
K: G
"D"d2| "G"gfeg "D"fedf| "C"edce "G"dcBd| "C"cBAc "G"BAGB| "A"ABc^c "D"de=f^f|
       "G"gfeg "D"fedf| "C"edce "G"dcBd| "C"cBAc "G"BAGB|1\
       "D"AGFA "G"G2 :|2 "D"AGFA "G"GDB,D|]
|:\
"G"G,B,DG "F"BGD=F| "C"EDCE "G"DG,B,D| GBdB cBAG| "D"F2 "C"E2 "D"D4|
"G"G,B,DG "F"BGD=F| "C"EDCE "G"DG,B,D| GBdB "D"cAFA|1\
"G"GD"(D)"B,D "G"G,4:|2 "G"GD"(D)"B,D "G"G,2 |]
%%begintext ragged
%% Written in the spring of 1982 when I was playing in the Plum Creek String Band at
%% Oberlin College. Brian Dean, Conservatory violinist par excellence and fiddler
%% unbelievable, played the hell out of this tune; hence it is named for him and for
%% the music we played.
%%
%% 9/1/98
%%endtext
% ---------- page 81 ----------
